frontend/svgs/biz045.svg

<?xml version="1.0" encoding="UTF-8"?> <svg width="100px" height="100px" viewBox="0 0 100 100" version="1.1" xmlns="http://www.w3.org/2000/svg" xmlns:xlink="http://www.w3.org/1999/xlink"> <g id="45.-Award" stroke="none" stroke-width="1" fill="none" fill-rule="evenodd" stroke-linecap="round" stroke-linejoin="round"> <path d="M68.84,54.6664959 L68.84,98 L49.64,78.6544793 L30.44,98 L30.44,54.6664959 C31.5411636,54.8680392 32.5507547,55.1582445 33.2982096,55.7027043 C35.7813369,57.5117303 36.4727914,63.0328015 39.3644877,64.1887411 C39.4249948,64.2152071 39.4878366,64.2395324 39.5506784,64.2587981 C42.493154,65.2139078 46.3807861,61.0108802 49.64,61.0108802 C52.8992139,61.0108802 56.786846,65.2139078 59.7293216,64.2562682 C59.7921634,64.2370026 59.8550052,64.2128718 59.9155123,64.1862113 C62.8072086,63.0326069 63.4986631,57.5115357 65.9817904,55.7027043 C66.7292453,55.1582445 67.7388364,54.8680392 68.84,54.6664959 L68.84,54.6664959 Z" id="Layer-3" stroke="#E46565" stroke-width="4" fill="#E46565"></path> <path d="M82.28,33.200024 C82.28,36.4600072 77.0454519,38.8540088 76.0905676,41.7971789 C75.1016358,44.8467967 77.8943028,49.8527547 76.0469869,52.3919298 C75.133154,53.6471168 73.3173563,54.0193916 71.4,54.2928083 C69.4005408,54.5757605 67.2897951,54.7499298 65.9817904,55.7027043 C63.4986631,57.5115357 62.8072086,63.0326069 59.9155123,64.1862113 C59.8550052,64.2128718 59.7921634,64.2370026 59.7293216,64.2562682 C56.786846,65.2139078 52.8992139,61.0108802 49.64,61.0108802 C46.3807861,61.0108802 42.493154,65.2139078 39.5506784,64.2587981 C39.4878366,64.2395324 39.4249948,64.2152071 39.3644877,64.1887411 C36.4727914,63.0328015 35.7813369,57.5117303 33.2982096,55.7027043 C31.9902049,54.7499298 29.8794592,54.5757605 27.88,54.2928083 C25.9626437,54.0195862 24.1470405,53.6471168 23.2330131,52.3919298 C21.3858918,49.8527547 24.1783642,44.8467967 23.1894324,41.7971789 C22.2343536,38.8540088 17,36.4598126 17,33.200024 C17,29.9402354 22.2345481,27.5460393 23.1894324,24.6028691 C24.1783642,21.5532513 21.3856972,16.5472933 23.2330131,14.0081182 C25.0970609,11.4446178 30.7353142,12.5643613 33.2982096,10.6973437 C35.8344508,8.84978637 36.5017803,3.13275036 39.5504839,2.14124997 C42.4929595,1.18594567 46.3805915,5.38916784 49.6398054,5.38916784 C52.8990193,5.38916784 56.7866514,1.18614028 59.729127,2.14124997 C62.7780251,3.13275036 63.44516,8.84978637 65.9814012,10.6973437 C68.5442967,12.5643613 74.18255,11.4446178 76.0465978,14.0081182 C77.8937191,16.5472933 75.1012467,21.5532513 76.0901785,24.6028691 C77.0456464,27.5460393 82.28,29.9400408 82.28,33.200024 L82.28,33.200024 Z" id="Layer-1" stroke="#FEB557" stroke-width="4" fill="#FEB557"></path> <path d="M49.16,52.88 C60.0289639,52.88 68.84,44.0689639 68.84,33.2 C68.84,22.3310361 60.0289639,13.52 49.16,13.52 C38.2910361,13.52 29.48,22.3310361 29.48,33.2 C29.48,44.0689639 38.2910361,52.88 49.16,52.88 L49.16,52.88 Z" id="Layer-2" stroke="#FEC957" stroke-width="4" fill="#FEC957"></path> </g> </svg>

<svg width="100" height="100" xmlns="http://www.w3.org/2000/svg"><g fill="none" fill-rule="evenodd" stroke-linecap="round" stroke-linejoin="round" stroke-width="4"><path d="M68.84 54.666V98l-19.2-19.346L30.44 98V54.666c1.101.202 2.11.492 2.858 1.037 2.483 1.809 3.175 7.33 6.066 8.486.061.026.124.05.187.07 2.942.955 6.83-3.248 10.089-3.248 3.26 0 7.147 4.203 10.09 3.245.062-.019.125-.043.186-.07 2.891-1.153 3.583-6.674 6.066-8.483.747-.545 1.757-.835 2.858-1.037h0z" stroke="#E46565" fill="#E46565"/><path d="M82.28 33.2c0 3.26-5.235 5.654-6.19 8.597-.988 3.05 1.804 8.056-.043 10.595-.914 1.255-2.73 1.627-4.647 1.9-2 .284-4.11.458-5.418 1.41-2.483 1.81-3.175 7.33-6.066 8.484-.061.027-.124.051-.187.07-2.942.958-6.83-3.245-10.089-3.245-3.26 0-7.147 4.203-10.09 3.248a1.746 1.746 0 01-.186-.07c-2.891-1.156-3.583-6.677-6.066-8.486-1.308-.953-3.419-1.127-5.418-1.41-1.917-.273-3.733-.646-4.647-1.901-1.847-2.54.945-7.545-.044-10.595C22.234 38.854 17 36.46 17 33.2s5.235-5.654 6.19-8.597c.988-3.05-1.804-8.056.043-10.595 1.864-2.563 7.502-1.444 10.065-3.31 2.536-1.848 3.204-7.565 6.252-8.557 2.943-.955 6.83 3.248 10.09 3.248 3.259 0 7.147-4.203 10.09-3.248 3.048.992 3.715 6.709 6.251 8.556 2.563 1.867 8.202.748 10.066 3.311 1.847 2.54-.946 7.545.043 10.595.956 2.943 6.19 5.337 6.19 8.597h0z" stroke="#FEB557" fill="#FEB557"/><path d="M49.16 52.88c10.869 0 19.68-8.811 19.68-19.68s-8.811-19.68-19.68-19.68-19.68 8.811-19.68 19.68 8.811 19.68 19.68 19.68h0z" stroke="#FEC957" fill="#FEC957"/></g></svg>
